symbolic/64x64/apps/drawpile.svg

<svg xmlns="http://www.w3.org/2000/svg" width="64" height="64" version="1.1">
 <path style="opacity:0.2" d="m 38.817666,5 c -5.000722,0 -9.78289,2.5742804 -15.14453,5.511719 A 24,24 0 0 1 32.00126,9 24,24 0 0 1 53.864542,23.175782 l 5.984374,-3.32422 c -0.04698,-0.10708 -0.09248,0.10642 -0.14062,0 C 53.528578,11.146662 46.385506,5 38.817666,5 Z M 9.8606347,42.203124 4.0676659,45.332032 C 10.041806,54.48857 16.89728,61 24.637978,61 29.584706,61 34.773554,58.518508 40.434854,55.453124 A 24,24 0 0 1 32.00126,57 24,24 0 0 1 9.8606347,42.203124 Z"/>
 <path style="fill:#3f3f3f" d="M 20.635254,11.162666 30.306844,30.153012 4.0687953,44.33274 C 10.042935,53.489278 16.896418,60 24.637116,60 30.61265,60 36.898614,56.427268 44.004592,52.51004 L 33.375918,33.553006 59.847072,18.850898 c -0.04698,-0.107072 -0.09168,0.106428 -0.13982,0 C 53.527538,10.145998 46.387062,4 38.819222,4 32.883918,4 27.308542,7.5951044 20.635254,11.162666 Z"/>
 <path style="opacity:0.1;fill:#ffffff" d="M 38.818359 4 C 32.883055 4 27.308054 7.5965017 20.634766 11.164062 L 21.033203 11.947266 C 27.524782 8.4537571 33.005682 5 38.818359 5 C 46.192511 5 53.161207 10.843091 59.230469 19.195312 L 59.849609 18.851562 C 59.802629 18.744491 59.757124 18.957991 59.708984 18.851562 C 53.529266 10.146663 46.386199 4 38.818359 4 z M 29.505859 30.585938 L 4.0683594 44.332031 C 4.2328837 44.584196 4.4022651 44.820285 4.5703125 45.060547 L 29.505859 31.585938 L 29.90625 32.369141 L 30.306641 32.152344 L 29.505859 30.585938 z M 34.232422 35.078125 L 33.376953 35.554688 L 33.804688 36.316406 L 34.232422 36.078125 L 43.576172 52.746094 C 43.717691 52.669342 43.858514 52.592944 44.005859 52.511719 L 34.232422 35.078125 z"/>
 <circle style="opacity:0.2" cx="32.001" cy="33" r="24"/>
 <circle style="fill:#00e6ff" cx="32.001" cy="32" r="24"/>
 <path style="fill:#00a6e2" d="m 32.00126,7.9999996 a 23.999998,23.999998 0 0 0 -9.152344,1.8369142 c -0.0026,0.5370102 0.319126,1.0555442 0.987308,1.0107422 2.433834,-0.161846 2.472952,-0.687342 3.325194,0.448243 0.851056,1.135637 0.445668,3.484671 -1.095704,2.835937 -1.54139,-0.649937 -4.09715,-1.742886 -4.746096,-0.445313 -0.648944,1.298651 0.286262,1.623015 1.543948,0.852538 1.257704,-0.770515 2.27017,-0.404807 2.513672,0.852539 0.242298,1.257361 0.16368,3.689859 -1.21582,3.243165 -1.379448,-0.44664 -1.827494,0.242695 -1.016604,0.931641 0.810874,0.688908 -0.08122,1.095418 -1.338868,0.568358 -1.257666,-0.527025 -1.21756,1.095134 -2.920897,1.01367 -1.704504,-0.08146 -1.825352,1.783806 -2.352539,2.472658 -0.527185,0.688996 -0.610735,2.921182 -0.732422,3.448244 -0.121694,0.527062 -0.647955,0.933202 -0.931641,-0.729494 -0.283668,-1.662698 0.08314,-2.394932 -1.417969,-2.516602 -1.501206,-0.12166 -3.003125,3.03125 -2.232421,3.706054 0.770686,0.674752 1.824647,-0.62219 1.743164,0.351564 -0.0804,0.973754 -0.60599,5.392424 0.975586,5.595702 1.581576,0.203242 2.636696,0.04138 3.93457,0.893556 1.297889,0.85203 3.730881,0.93035 5.475587,3.688474 1.744688,2.758128 3.774846,3.080652 5.72168,3.527348 1.948008,0.44678 1.74368,1.543526 0.729492,3.002928 -1.014208,1.459422 -0.444702,2.960064 -3.852538,4.095702 -3.407874,1.134454 -3.651982,3.975868 -3.530276,4.502932 0.013,0.05606 -0.07058,0.425762 -0.12598,0.741208 A 23.999998,23.999998 0 0 0 32.001262,56 23.999998,23.999998 0 0 0 49.00517,48.913086 c -0.547822,-1.748208 -1.135036,-4.152536 -1.154298,-5.17383 -0.04146,-2.148362 0.568536,-2.310246 -0.202146,-3.729492 -0.770706,-1.420448 -2.354738,-0.04312 -5.4375,-0.44824 -3.082766,-0.406486 -2.595982,-2.350788 -4.746096,-5.027348 -2.15015,-2.676572 1.990032,-4.86781 3.125976,-7.625974 0.961204,-2.33386 4.63043,-1.937938 6.407228,-1.637696 l 3.2666,-1.690428 c 0.15992,-0.1308 0.310252,-0.259514 0.506838,-0.404298 2.313242,-1.70406 -1.1328,-1.741838 -2.06543,-2.390624 -0.933816,-0.648736 -0.813816,-0.08152 -1.50293,0.770506 -0.689112,0.851974 -1.745104,-0.649866 -2.677736,-1.13672 -0.933816,-0.485664 -1.133748,1.134062 -2.22949,3.000002 -1.094594,1.865886 -1.744748,1.01391 -2.718754,0 -0.973996,-1.013964 -0.366724,-1.90617 0.647464,-2.311524 1.014168,-0.405336 1.09671,-0.566264 0.366208,-1.376953 -0.7305,-0.810617 -1.055676,-0.487931 -0.325194,-1.136719 0.73052,-0.648733 1.178188,-0.567316 2.759764,-1.541016 1.58276,-0.973703 -0.243442,-1.864467 -1.29785,-1.154296 -1.054356,0.710262 -2.39405,-1.441564 -2.677736,-3.251953 -0.283686,-1.810298 0.567016,-1.232161 1.541016,-1.880858 0.1365,-0.09124 0.0666,-0.638314 -0.07326,-1.1718752 A 23.999998,23.999998 0 0 0 32.00126,7.9999996 Z m -1.262696,1.397461 c 1.47546,0.055982 3.165784,0.5934574 2.668946,2.1767574 -0.648944,2.06798 -0.711934,1.458182 -1.458984,1.907226 -0.808504,0.485666 -1.218114,0.810424 -1.907228,1.78418 -0.689146,0.973737 -2.270382,0.769961 -1.400388,-0.28418 0.87114,-1.055252 0.548664,-3.893567 0.06154,-4.664061 0,0 -0.648294,-0.6091234 0.811524,-0.8525396 0.18262,-0.030322 0.389442,-0.050042 0.612302,-0.061522 0.19498,-0.01076 0.401524,-0.01304 0.612308,-0.00586 z M 10.632119,21.177732 c -0.284983,0.55395 -0.552825,1.136018 -0.8232417,1.713868 a 23.999998,23.999998 0 0 0 -1.8076174,9.108398 23.999998,23.999998 0 0 0 1.0458984,6.928712 l 4.0253907,-1.836914 c 0.07199,-0.714046 0.468624,-0.908102 0.621094,-1.060548 0.28487,-0.28361 -1.905603,-1.459358 -1.825195,-4.29785 0.0804,-2.838474 -2.3130263,-2.189902 -1.866212,-5.191408 0.382975,-2.573852 0.878103,-4.366872 0.629883,-5.364258 z m 3.146484,18.782228 -3.594726,1.921876 -0.166992,-0.328128 a 23.999998,23.999998 0 0 0 9.615234,10.98047 l 0.105458,-0.442382 c 0,0 -2.190242,-2.91958 -2.393556,-4.907228 -0.203316,-1.986462 -1.66582,-3.082896 -3.369141,-6.773436 -0.0736,-0.15952 -0.13296,-0.303626 -0.19629,-0.451172 z"/>
 <path style="opacity:0.1" d="M 32.001953 8 A 23.999998 23.999998 0 0 0 22.849609 9.8359375 C 22.847944 10.179979 22.995234 10.499947 23.265625 10.685547 A 23.999998 23.999998 0 0 1 32.001953 9 A 23.999998 23.999998 0 0 1 40.517578 10.59375 C 40.535543 10.662286 40.537367 10.719122 40.552734 10.787109 C 40.566042 10.778666 40.578441 10.77452 40.591797 10.765625 C 40.728297 10.674385 40.657438 10.127311 40.517578 9.59375 A 23.999998 23.999998 0 0 0 32.001953 8 z M 28.859375 10.662109 C 28.315808 10.941583 28.703125 11.318359 28.703125 11.318359 C 28.926338 11.671419 29.108993 12.461586 29.164062 13.3125 C 29.23775 12.348293 29.087729 11.285888 28.859375 10.662109 z M 33.408203 11.574219 C 32.759259 13.642199 32.696269 13.031425 31.949219 13.480469 C 31.140715 13.966135 30.73013 14.291869 30.041016 15.265625 C 29.678624 15.77767 29.076633 15.95684 28.707031 15.865234 C 28.682624 15.900678 28.66723 15.948241 28.640625 15.980469 C 27.770631 17.03461 29.35187 17.239362 30.041016 16.265625 C 30.73013 15.291869 31.140715 14.966135 31.949219 14.480469 C 32.696269 14.031425 32.759259 14.642199 33.408203 12.574219 C 33.532413 12.178394 33.519857 11.848133 33.408203 11.574219 z M 39.050781 12.646484 C 38.984452 12.858089 38.975205 13.164206 39.050781 13.646484 C 39.334467 15.456873 40.67416 17.6087 41.728516 16.898438 C 42.235505 16.556967 42.913395 16.590273 43.3125 16.820312 C 44.282756 15.947375 42.697203 15.246001 41.728516 15.898438 C 40.67416 16.6087 39.334467 14.456873 39.050781 12.646484 z M 22.699219 13.085938 C 22.073619 13.049618 21.563667 13.198957 21.320312 13.685547 C 21.0401 14.246301 21.066451 14.614996 21.275391 14.802734 C 21.293453 14.761867 21.298821 14.728556 21.320312 14.685547 C 21.667582 13.991178 22.562981 13.989937 23.554688 14.230469 C 24.248425 14.023151 24.81256 14.214477 25.134766 14.753906 C 25.459192 14.882477 25.790289 15.016386 26.066406 15.132812 C 27.258746 15.634645 27.762008 14.343568 27.539062 13.207031 C 27.390551 13.946833 26.902295 14.484622 26.066406 14.132812 C 25.103037 13.726602 23.741884 13.14647 22.699219 13.085938 z M 25.451172 17.160156 C 25.354641 18.108002 25.002188 18.90679 24.162109 18.634766 C 22.805465 18.195509 22.354689 18.855939 23.111328 19.533203 C 23.352078 19.470526 23.699887 19.485106 24.162109 19.634766 C 25.300711 20.003455 25.533984 18.434653 25.451172 17.160156 z M 40.365234 19.521484 C 40.331283 19.549482 40.300726 19.562579 40.265625 19.59375 C 39.535143 20.242538 39.861297 19.919852 40.591797 20.730469 C 40.647357 20.792127 40.664836 20.828278 40.710938 20.882812 C 41.213731 20.611157 41.17122 20.373495 40.591797 19.730469 C 40.502484 19.63136 40.441241 19.590558 40.365234 19.521484 z M 21.388672 20.03125 C 20.530523 19.987562 20.375186 21.219718 18.884766 21.148438 C 17.180262 21.066978 17.06039 22.932242 16.533203 23.621094 C 16.006018 24.31009 15.922468 26.54325 15.800781 27.070312 C 15.679087 27.597375 15.152827 28.00254 14.869141 26.339844 C 14.585473 24.677146 14.952281 23.943936 13.451172 23.822266 C 12.043047 23.708149 10.632845 26.476483 11.099609 27.376953 C 11.379755 26.229038 12.407234 24.737663 13.451172 24.822266 C 14.952281 24.943936 14.585473 25.677146 14.869141 27.339844 C 15.152827 29.00254 15.679087 28.597375 15.800781 28.070312 C 15.922468 27.54325 16.006018 25.31009 16.533203 24.621094 C 17.06039 23.932242 17.180262 22.066978 18.884766 22.148438 C 20.588103 22.229902 20.548975 20.607741 21.806641 21.134766 C 23.064289 21.661826 23.955405 21.255314 23.144531 20.566406 C 23.066439 20.500057 23.010111 20.434482 22.955078 20.369141 C 22.65953 20.390853 22.259067 20.32437 21.806641 20.134766 C 21.649432 20.068887 21.511265 20.037491 21.388672 20.03125 z M 44.207031 20.332031 C 43.528198 20.342211 43.255649 21.785271 42.296875 23.417969 C 41.202281 25.283855 40.552131 24.431879 39.578125 23.417969 C 39.411716 23.244731 39.30456 23.078371 39.224609 22.914062 C 38.994707 23.33857 39.039513 23.857255 39.578125 24.417969 C 40.552131 25.431879 41.202281 26.283855 42.296875 24.417969 C 43.392617 22.552029 43.591575 20.932305 44.525391 21.417969 C 45.458023 21.904823 46.514013 23.406661 47.203125 22.554688 C 47.892239 21.702662 47.773215 21.13642 48.707031 21.785156 C 49.25285 22.164856 50.636822 22.342129 51.246094 22.759766 C 52.472214 21.463872 49.556033 21.375766 48.707031 20.785156 C 47.773215 20.13642 47.892239 20.702662 47.203125 21.554688 C 46.514013 22.406661 45.458023 20.904823 44.525391 20.417969 C 44.408664 20.357261 44.304007 20.330577 44.207031 20.332031 z M 10.632812 21.177734 C 10.347829 21.731684 10.07901 22.312775 9.8085938 22.890625 A 23.999998 23.999998 0 0 0 8.0019531 32 A 23.999998 23.999998 0 0 0 8.0273438 32.462891 A 23.999998 23.999998 0 0 1 9.8085938 23.890625 C 10.07901 23.312775 10.347829 22.731684 10.632812 22.177734 C 10.646484 22.232667 10.648899 22.299618 10.658203 22.359375 C 10.698493 21.898389 10.709675 21.486579 10.632812 21.177734 z M 9.9863281 27.701172 C 9.6527092 30.510898 11.948003 29.948231 11.869141 32.732422 C 11.814782 34.651349 12.767345 35.765162 13.322266 36.402344 C 13.458046 36.218163 13.610505 36.114091 13.693359 36.03125 C 13.978229 35.74764 11.788733 34.570914 11.869141 31.732422 C 11.936978 29.337459 10.248754 29.41829 9.9863281 27.701172 z M 12.904297 28.578125 C 12.850425 29.198386 12.794517 29.992893 12.826172 30.867188 C 12.853295 30.002639 12.932577 29.224343 12.960938 28.880859 C 12.97458 28.717823 12.947655 28.633764 12.904297 28.578125 z M 36.921875 33.466797 C 36.773301 34.134776 36.888495 34.815747 37.464844 35.533203 C 39.614958 38.209763 39.128172 40.156014 42.210938 40.5625 C 45.2937 40.96762 46.877732 39.589318 47.648438 41.009766 C 47.833113 41.349855 47.936157 41.615144 47.990234 41.855469 C 48.073682 41.254399 48.091469 40.825629 47.648438 40.009766 C 46.877732 38.589318 45.2937 39.96762 42.210938 39.5625 C 39.128172 39.156014 39.614958 37.209763 37.464844 34.533203 C 37.172491 34.169273 37.005007 33.815426 36.921875 33.466797 z M 13.779297 39.958984 L 10.183594 41.882812 L 10.017578 41.552734 A 23.999998 23.999998 0 0 0 10.572266 42.673828 L 13.779297 40.958984 C 13.842627 41.10653 13.901009 41.250636 13.974609 41.410156 C 15.67793 45.100696 17.140434 46.197132 17.34375 48.183594 C 17.480674 49.522196 18.492893 51.222947 19.15625 52.230469 A 23.999998 23.999998 0 0 0 19.632812 52.533203 L 19.738281 52.091797 C 19.738281 52.091797 17.547064 49.171242 17.34375 47.183594 C 17.140434 45.197132 15.67793 44.100696 13.974609 40.410156 C 13.901009 40.250636 13.842627 40.10653 13.779297 39.958984 z M 30.439453 43.396484 C 30.316302 43.758478 30.100103 44.154361 29.798828 44.587891 C 28.78462 46.047313 29.353148 47.547956 25.945312 48.683594 C 22.537439 49.818048 22.29431 52.660436 22.416016 53.1875 C 22.429016 53.24356 22.344462 53.612288 22.289062 53.927734 A 23.999998 23.999998 0 0 0 22.398438 53.970703 C 22.369046 53.139766 22.84655 50.715147 25.945312 49.683594 C 29.353148 48.547956 28.78462 47.047313 29.798828 45.587891 C 30.415559 44.700423 30.723561 43.951131 30.439453 43.396484 z M 47.871094 43.910156 C 47.855072 44.152766 47.845386 44.418218 47.851562 44.738281 C 47.868121 45.616254 48.305224 47.50029 48.775391 49.126953 A 23.999998 23.999998 0 0 0 49.005859 48.914062 C 48.48172 47.241429 47.935419 44.998061 47.871094 43.910156 z"/>
 <path style="opacity:0.1;fill-rule:evenodd" d="m 53.637978,13.445812 c 1.415638,1.995899 0.403852,4.415816 1.226564,6.54297 1.367184,1.12872 0.77767,1.475528 -0.515626,2.035156 -11.183886,6.018366 -22.317426,12.140024 -33.55078,18.0625 -2.047002,0.881812 -0.40334,2.330198 0.992186,1.222656 L 58.239542,24.941906 C 56.950938,23.41636 59.685264,22.626862 60.00126,21.391124 60.040782,18.99643 57.80018,17.490931 56.442666,15.797375 55.5748,14.935133 54.622314,14.167266 53.637978,13.445812 Z m -9.414062,10.29297 C 42.16485,24.107638 40.343526,25.298948 38.399698,26.063 L 6.2590721,40.492688 C 7.9236707,43.01241 0.85758779,43.757306 5.7629785,46.855968 7.0791083,48.86952 8.9234885,50.518496 10.848916,51.938 9.4481315,49.957416 10.420641,47.564462 9.6418847,45.445812 8.3036781,44.301492 8.9099641,43.944584 10.192666,43.391124 21.361686,37.38016 32.480138,31.271028 43.696572,25.352062 c 0.52198,-0.217884 1.792196,-1.444338 0.527344,-1.61328 z"/>
 <path style="fill:#ffffff;fill-rule:evenodd" d="M 16.742966,35.076334 7.0901077,39.524484 8.8659525,42.6382 18.096829,37.745224 Z"/>
 <path style="fill:#ffffff;fill-rule:evenodd" d="m 47.84041,28.307376 9.65286,-4.44815 -1.775844,-3.113716 -9.230876,4.892976 z"/>
 <path style="fill:#616161;fill-rule:evenodd" d="m 53.63635,12.443404 c 1.415638,1.995899 0.404072,4.416288 1.226784,6.543441 1.367184,1.128721 0.777568,1.478609 -0.515728,2.038237 -11.183886,6.018366 -22.315888,12.137872 -33.549242,18.060348 -2.047001,0.881812 -0.404276,2.331614 0.99125,1.224072 L 58.237708,23.943084 C 56.949104,22.417538 59.68475,21.62594 60.000746,20.390204 60.040268,17.995509 57.79858,16.491256 56.441066,14.7977 55.5732,13.935458 54.620686,13.164858 53.63635,12.443404 Z m 2.081076,8.607634 1.338256,2.686536 -8.524744,4.005976 c -1.39907,-0.833146 -1.396232,-2.858602 0.310256,-3.12859 z m -11.493078,1.685786 c -2.059066,0.368856 -3.882402,1.56078 -5.82623,2.324832 L 6.2609343,39.493416 c 1.6645984,2.519722 -5.40221685,3.264218 -0.4968262,6.36288 1.3161298,2.013552 3.1580182,3.660704 5.0834459,5.080208 -1.4007847,-1.980584 -0.425342,-4.37231 -1.2040983,-6.49096 -1.3382066,-1.14432 -0.7336122,-1.501442 0.5490893,-2.0549 11.169021,-6.010964 22.288537,-12.118574 33.504971,-18.03754 0.52198,-0.217884 1.791684,-1.447338 0.526832,-1.61628 z M 15.967707,35.695928 c 1.396117,0.836068 1.392388,2.8584 -0.313207,3.12859 l -6.8762307,3.56392 -1.3382556,-2.686534 z"/>
</svg>

<svg xmlns="http://www.w3.org/2000/svg" width="64" height="64"><path style="opacity:.2" d="M38.818 5c-5.001 0-9.783 2.574-15.145 5.512A24 24 0 0 1 32.001 9a24 24 0 0 1 21.864 14.176l5.984-3.324c-.047-.108-.093.106-.14 0C53.528 11.147 46.385 5 38.817 5zM9.86 42.203l-5.793 3.129C10.042 54.489 16.898 61 24.638 61c4.947 0 10.136-2.481 15.797-5.547A24 24 0 0 1 32 57a24 24 0 0 1-22.14-14.797z"/><path style="fill:#3f3f3f" d="m20.635 11.163 9.672 18.99-26.238 14.18C10.043 53.489 16.896 60 24.637 60c5.976 0 12.262-3.573 19.368-7.49l-10.63-18.957 26.472-14.702c-.047-.107-.092.106-.14 0C53.527 10.146 46.387 4 38.82 4c-5.935 0-11.51 3.595-18.184 7.163z"/><path style="opacity:.1;fill:#fff" d="M38.818 4c-5.935 0-11.51 3.597-18.183 7.164l.398.783C27.525 8.454 33.006 5 38.818 5c7.375 0 14.343 5.843 20.412 14.195l.62-.343c-.047-.108-.093.106-.141 0C53.529 10.147 46.386 4 38.819 4zm-9.312 26.586L4.068 44.332c.165.252.334.488.502.729l24.936-13.475.4.783.4-.217-.8-1.566zm4.726 4.492-.855.477.428.761.427-.238 9.344 16.668.43-.234-9.774-17.434z"/><circle style="opacity:.2" cx="32.001" cy="33" r="24"/><circle style="fill:#00e6ff" cx="32.001" cy="32" r="24"/><path style="fill:#00a6e2" d="M32.001 8a24 24 0 0 0-9.152 1.837c-.003.537.319 1.055.987 1.01 2.434-.161 2.473-.687 3.325.449.851 1.136.446 3.485-1.095 2.836-1.542-.65-4.097-1.743-4.746-.445-.65 1.298.286 1.623 1.544.852 1.257-.77 2.27-.405 2.513.853.243 1.257.164 3.69-1.216 3.243-1.379-.447-1.827.242-1.016.931.81.69-.081 1.096-1.34.569-1.257-.527-1.217 1.095-2.92 1.013-1.704-.081-1.825 1.784-2.352 2.473-.528.69-.611 2.921-.733 3.448-.122.527-.648.934-.932-.73-.283-1.662.084-2.394-1.418-2.516-1.5-.121-3.003 3.031-2.232 3.706.77.675 1.825-.622 1.743.352-.08.974-.606 5.392.976 5.596 1.581.203 2.637.04 3.934.893 1.298.852 3.731.93 5.476 3.689 1.745 2.758 3.775 3.08 5.722 3.527 1.948.447 1.743 1.543.73 3.003-1.015 1.46-.446 2.96-3.853 4.096-3.408 1.134-3.652 3.975-3.53 4.502.012.057-.071.426-.127.742A24 24 0 0 0 32.001 56a24 24 0 0 0 17.004-7.087c-.548-1.748-1.135-4.152-1.154-5.174-.042-2.148.568-2.31-.202-3.73-.771-1.42-2.355-.042-5.438-.447-3.083-.407-2.596-2.351-4.746-5.028-2.15-2.676 1.99-4.868 3.126-7.626.961-2.334 4.63-1.938 6.407-1.637l3.267-1.69c.16-.132.31-.26.507-.405 2.313-1.704-1.133-1.742-2.066-2.39-.933-.65-.813-.082-1.503.77-.689.852-1.745-.65-2.677-1.137-.934-.486-1.134 1.134-2.23 3-1.094 1.866-1.745 1.014-2.719 0-.974-1.014-.366-1.906.648-2.312 1.014-.405 1.097-.566.366-1.377-.73-.81-1.056-.487-.325-1.136.73-.649 1.178-.568 2.76-1.541 1.582-.974-.244-1.865-1.298-1.155-1.055.71-2.394-1.441-2.678-3.252-.284-1.81.567-1.232 1.541-1.88.137-.092.067-.639-.073-1.172A24 24 0 0 0 32 8zM30.74 9.397c1.475.056 3.165.594 2.669 2.177-.65 2.068-.712 1.458-1.46 1.907-.808.486-1.218.81-1.907 1.785-.689.973-2.27.77-1.4-.285.871-1.055.549-3.893.061-4.664 0 0-.648-.609.812-.852a6.91 6.91 0 0 1 1.225-.067zm-20.107 11.78c-.285.555-.553 1.137-.823 1.715A24 24 0 0 0 8 32a24 24 0 0 0 1.046 6.929l4.026-1.837c.072-.714.468-.908.62-1.06.286-.284-1.905-1.46-1.825-4.299.08-2.838-2.313-2.19-1.866-5.191.383-2.574.878-4.367.63-5.364zM13.78 39.96l-3.595 1.922-.167-.328a24 24 0 0 0 9.615 10.98l.106-.442s-2.19-2.92-2.394-4.907c-.203-1.987-1.666-3.083-3.37-6.774-.073-.16-.132-.303-.195-.451z"/><path style="opacity:.1" d="M32.002 8a24 24 0 0 0-9.152 1.836c-.002.344.145.664.416.85A24 24 0 0 1 32.002 9a24 24 0 0 1 8.516 1.594c.018.068.02.125.035.193.013-.008.025-.012.039-.021.136-.092.065-.639-.074-1.172A24 24 0 0 0 32.002 8zm-3.143 2.662c-.543.28-.156.656-.156.656.223.353.406 1.144.461 1.995.074-.965-.076-2.027-.305-2.65zm4.55.912c-.65 2.068-.713 1.457-1.46 1.906-.808.486-1.219.812-1.908 1.786-.362.512-.964.69-1.334.6-.024.035-.04.082-.066.114-.87 1.055.71 1.26 1.4.286s1.1-1.3 1.908-1.786c.747-.449.81.162 1.46-1.906.123-.396.11-.726 0-1zm5.642 1.072c-.067.212-.076.518 0 1 .283 1.81 1.623 3.963 2.678 3.252.507-.341 1.184-.308 1.584-.078.97-.873-.616-1.574-1.584-.922-1.055.71-2.395-1.441-2.678-3.252zm-16.352.44c-.625-.036-1.135.113-1.379.6-.28.56-.254.929-.045 1.117.018-.041.024-.074.045-.117.348-.695 1.243-.696 2.235-.456.693-.207 1.258-.016 1.58.524.324.128.655.262.931.379 1.193.502 1.696-.79 1.473-1.926-.148.74-.637 1.278-1.473.926-.963-.406-2.324-.987-3.367-1.047zm2.752 4.074c-.096.948-.449 1.747-1.289 1.475-1.357-.44-1.807.22-1.05.898.24-.062.588-.048 1.05.102 1.139.368 1.372-1.2 1.29-2.475zm14.914 2.361c-.034.028-.064.042-.1.073-.73.649-.404.326.327 1.136.055.062.073.098.119.153.503-.272.46-.51-.12-1.153-.089-.099-.15-.14-.226-.209zm-18.976.51c-.858-.043-1.014 1.189-2.504 1.117-1.705-.081-1.825 1.784-2.352 2.473-.527.69-.61 2.922-.732 3.45-.122.526-.648.932-.932-.731-.284-1.663.083-2.396-1.418-2.518-1.408-.114-2.818 2.654-2.351 3.555.28-1.148 1.307-2.64 2.351-2.555 1.501.122 1.134.855 1.418 2.518.284 1.663.81 1.257.932.73.121-.527.205-2.76.732-3.449.527-.689.647-2.554 2.352-2.473 1.703.082 1.664-1.54 2.922-1.013 1.257.527 2.148.12 1.338-.569a1.565 1.565 0 0 1-.19-.197c-.295.022-.696-.045-1.148-.234a1.248 1.248 0 0 0-.418-.104zm22.818.301c-.679.01-.951 1.453-1.91 3.086-1.095 1.866-1.745 1.014-2.719 0a1.927 1.927 0 0 1-.353-.504c-.23.425-.185.943.353 1.504.974 1.014 1.624 1.866 2.719 0 1.096-1.866 1.295-3.486 2.228-3 .933.487 1.989 1.989 2.678 1.137.69-.852.57-1.419 1.504-.77.546.38 1.93.557 2.54.975 1.225-1.296-1.691-1.384-2.54-1.975-.934-.649-.815-.082-1.504.77-.689.852-1.745-.65-2.678-1.137a.667.667 0 0 0-.318-.086zm-33.574.846c-.285.554-.554 1.135-.824 1.713A24 24 0 0 0 8.002 32a24 24 0 0 0 .025.463A24 24 0 0 1 9.81 23.89c.27-.578.539-1.16.824-1.713.013.055.016.122.025.181.04-.46.052-.872-.025-1.181zM9.986 27.7c-.333 2.81 1.962 2.247 1.883 5.031-.054 1.92.898 3.033 1.453 3.67.136-.184.289-.288.371-.37.285-.284-1.904-1.461-1.824-4.3.068-2.395-1.62-2.314-1.883-4.03zm2.918.877c-.054.62-.11 1.415-.078 2.29.027-.865.107-1.644.135-1.987.014-.163-.013-.247-.057-.303zm24.018 4.889c-.149.668-.034 1.349.543 2.066 2.15 2.677 1.663 4.623 4.746 5.03 3.083.405 4.667-.974 5.437.447.185.34.288.605.342.845.084-.6.101-1.03-.342-1.845-.77-1.42-2.354-.042-5.437-.447-3.083-.407-2.596-2.353-4.746-5.03a2.68 2.68 0 0 1-.543-1.066zm-23.143 6.492-3.595 1.924-.166-.33a24 24 0 0 0 .554 1.12l3.207-1.714c.064.148.122.292.196.451 1.703 3.69 3.165 4.787 3.369 6.774.137 1.338 1.149 3.039 1.812 4.046a24 24 0 0 0 .477.303l.105-.441s-2.19-2.92-2.394-4.908c-.204-1.987-1.666-3.083-3.37-6.774-.073-.16-.131-.303-.195-.451zm16.66 3.437c-.123.362-.339.758-.64 1.192-1.014 1.46-.446 2.96-3.854 4.096-3.408 1.134-3.65 3.976-3.529 4.504.013.056-.072.424-.127.74a24 24 0 0 0 .11.043c-.03-.831.448-3.256 3.546-4.287 3.408-1.136 2.84-2.637 3.854-4.096.617-.888.925-1.637.64-2.192zm17.432.514a9.481 9.481 0 0 0-.02.828c.017.878.454 2.762.924 4.389a24 24 0 0 0 .23-.213c-.523-1.673-1.07-3.916-1.134-5.004z"/><path style="opacity:.1;fill-rule:evenodd" d="M53.638 13.446c1.416 1.996.404 4.416 1.227 6.543 1.367 1.129.777 1.475-.516 2.035-11.184 6.018-22.318 12.14-33.55 18.062-2.048.882-.404 2.33.991 1.223l36.45-16.367c-1.29-1.526 1.445-2.315 1.761-3.55.04-2.396-2.2-3.901-3.558-5.595-.868-.862-1.82-1.63-2.805-2.351zm-9.414 10.293c-2.06.369-3.88 1.56-5.824 2.324L6.26 40.493c1.664 2.52-5.402 3.264-.497 6.363 1.316 2.014 3.16 3.662 5.086 5.082-1.4-1.98-.428-4.374-1.207-6.492-1.338-1.145-.732-1.501.55-2.055 11.17-6.01 22.288-12.12 33.505-18.039.522-.218 1.792-1.444.527-1.613z"/><path style="fill:#fff;fill-rule:evenodd" d="M16.743 35.076 7.09 39.524l1.776 3.114 9.23-4.893zM47.84 28.307l9.653-4.448-1.776-3.113-9.23 4.892z"/><path style="fill:#616161;fill-rule:evenodd" d="M53.636 12.443c1.416 1.996.404 4.417 1.227 6.544 1.367 1.129.778 1.478-.516 2.038-11.183 6.018-22.315 12.138-33.549 18.06-2.047.882-.404 2.332.991 1.225l36.449-16.367c-1.289-1.525 1.447-2.317 1.763-3.553.04-2.394-2.202-3.899-3.56-5.592-.868-.863-1.82-1.633-2.805-2.355zm2.081 8.608 1.339 2.687-8.525 4.006c-1.4-.834-1.396-2.86.31-3.129zm-11.493 1.686c-2.059.369-3.882 1.56-5.826 2.325L6.261 39.493c1.665 2.52-5.402 3.265-.497 6.363 1.316 2.014 3.158 3.661 5.084 5.08-1.401-1.98-.426-4.372-1.205-6.49-1.338-1.145-.733-1.502.55-2.055C21.362 36.38 32.48 30.272 43.698 24.353c.521-.218 1.791-1.447.526-1.616zM15.968 35.696c1.396.836 1.392 2.858-.313 3.129l-6.877 3.563-1.338-2.686z"/></svg>
